docs/images/icons/Master_ID.svg

<svg width="24" height="24" viewBox="0 0 24 24" fill="none" xmlns="http://www.w3.org/2000/svg">
<g id="Master ID">
<path id="Vector" fill-rule="evenodd" clip-rule="evenodd" d="M22.7127 17.4339V15.6899H22.2927V16.7019C22.2213 16.61 22.1289 16.5364 22.0234 16.4872C21.9178 16.438 21.8021 16.4146 21.6857 16.4189C21.4176 16.4189 21.1604 16.5255 20.9708 16.7151C20.7812 16.9047 20.6747 17.1618 20.6747 17.4299C20.6747 17.6981 20.7812 17.9552 20.9708 18.1448C21.1604 18.3344 21.4176 18.4409 21.6857 18.4409C21.8021 18.4453 21.9178 18.4219 22.0234 18.3727C22.1289 18.3235 22.2213 18.2499 22.2927 18.1579V18.3929H22.7127V17.4329V17.4339ZM10.1657 16.4659H10.8537V16.8439H10.1697V17.7339C10.1697 17.9279 10.2467 18.0579 10.4487 18.0579C10.5801 18.0479 10.7067 18.0045 10.8167 17.9319L10.9377 18.2919C10.7803 18.3903 10.5983 18.4423 10.4127 18.4419C9.91472 18.4419 9.74072 18.1749 9.74072 17.7259V16.8459H9.34872V16.4679H9.74072V15.8819H10.1657V16.4679V16.4659ZM4.57172 18.4059V17.1919C4.57871 17.09 4.5639 16.9877 4.52829 16.8919C4.49268 16.7961 4.43708 16.7089 4.36518 16.6363C4.29329 16.5636 4.20675 16.5071 4.11132 16.4705C4.01589 16.4339 3.91376 16.418 3.81172 16.4239C3.67805 16.415 3.54442 16.4421 3.4248 16.5024C3.30518 16.5628 3.20396 16.6541 3.13172 16.7669C3.06579 16.6575 2.97153 16.5678 2.85889 16.5074C2.74624 16.4471 2.61939 16.4182 2.49172 16.4239C2.38055 16.4183 2.26985 16.4419 2.17058 16.4922C2.0713 16.5426 1.9869 16.618 1.92572 16.7109V16.4719H1.50572V18.4059H1.92972V17.3339C1.92062 17.2677 1.92628 17.2003 1.94629 17.1366C1.96631 17.0728 2.00018 17.0143 2.04548 16.9651C2.09079 16.916 2.1464 16.8775 2.20834 16.8524C2.27027 16.8273 2.337 16.8162 2.40372 16.8199C2.68272 16.8199 2.82372 17.0019 2.82372 17.3299V18.4059H3.24872V17.3339C3.24001 17.2679 3.2459 17.2007 3.26599 17.1372C3.28609 17.0737 3.31989 17.0153 3.365 16.9663C3.41012 16.9173 3.46545 16.8788 3.52709 16.8535C3.58873 16.8282 3.65517 16.8167 3.72172 16.8199C4.00972 16.8199 4.14672 17.0019 4.14672 17.3299V18.4059H4.57172ZM21.2527 22.3939H20.8667L20.8687 20.1209H20.5817V23.7609H20.8847V22.6469H21.2707L22.2817 23.7609H22.6487L21.4957 22.5059L22.6277 21.3839H22.2637L21.2537 22.3949L21.2527 22.3939ZM12.5767 21.5989C12.512 21.658 12.4561 21.726 12.4107 21.8009L12.4007 20.1329H12.1127V23.7729H12.4007V22.4179C12.3995 22.3082 12.4206 22.1993 12.4627 22.0979C12.5023 22.0046 12.5601 21.9201 12.6328 21.8494C12.7054 21.7786 12.7914 21.7231 12.8857 21.6859C12.9853 21.6478 13.0911 21.6288 13.1977 21.6299C13.3077 21.6269 13.4177 21.6449 13.5207 21.6819C13.6114 21.7148 13.6935 21.7677 13.761 21.8366C13.8285 21.9055 13.8797 21.9886 13.9107 22.0799C13.9459 22.1843 13.9631 22.2938 13.9617 22.4039V23.7739H14.2517V22.3159C14.2541 22.1778 14.2293 22.0405 14.1787 21.9119C14.134 21.7965 14.0641 21.6924 13.9742 21.6073C13.8843 21.5222 13.7765 21.4582 13.6587 21.4199C13.3712 21.3194 13.0559 21.3337 12.7787 21.4599C12.7052 21.497 12.6373 21.5442 12.5767 21.5999V21.5989ZM9.93872 20.1839C10.2294 20.1843 10.5161 20.2514 10.7767 20.3799C10.8967 20.4409 11.0107 20.5179 11.1117 20.6079C11.2117 20.6969 11.2977 20.7979 11.3687 20.9119L11.1117 21.0829C10.9214 20.7992 10.6298 20.5989 10.2967 20.5229C9.98171 20.447 9.65091 20.4704 9.34972 20.5899C9.17171 20.66 9.00995 20.7658 8.87442 20.9008C8.73889 21.0358 8.63247 21.1972 8.56172 21.3749C8.40839 21.7716 8.40839 22.2112 8.56172 22.6079C8.63242 22.7859 8.73894 22.9474 8.87467 23.0824C9.0104 23.2174 9.17243 23.3231 9.35072 23.3929C9.53772 23.4669 9.73772 23.5039 9.93872 23.5029C10.0587 23.5029 10.1787 23.4889 10.2947 23.4619C10.5199 23.4124 10.7288 23.3064 10.9017 23.1539C10.9857 23.0799 11.0577 22.9949 11.1177 22.9019L11.3707 23.0859C11.2977 23.1959 11.2097 23.2959 11.1107 23.3829C10.9015 23.5617 10.6526 23.6879 10.3847 23.7509C9.99987 23.8386 9.59759 23.809 9.22972 23.6659C9.01528 23.5813 8.81982 23.4549 8.65472 23.2939C8.4907 23.1309 8.36143 22.9363 8.27472 22.7219C8.09094 22.2516 8.09094 21.7293 8.27472 21.2589C8.36172 21.0449 8.49072 20.8499 8.65472 20.6869C8.81972 20.5269 9.01472 20.3999 9.22972 20.3149C9.45472 20.2259 9.69572 20.1819 9.93872 20.1839ZM9.93872 20.1839H9.93072H9.93872ZM4.23972 20.2239C4.50972 20.2199 4.77972 20.2619 5.03672 20.3469C5.26172 20.4219 5.46772 20.5419 5.64372 20.7009C5.81072 20.8569 5.94072 21.0479 6.02572 21.2589C6.20372 21.7329 6.20372 22.2549 6.02572 22.7279C5.94107 22.9398 5.81062 23.1304 5.64372 23.2859C5.46772 23.4449 5.26172 23.5659 5.03672 23.6399C4.77989 23.7256 4.51042 23.7671 4.23972 23.7629H2.94772V20.2229H4.23972V20.2239ZM1.57772 23.7639H1.88772V20.2239H1.57772V23.7639ZM23.0167 23.6439H22.9717V23.7639H22.9497V23.6439H22.9047V23.6219H23.0187L23.0167 23.6439ZM23.1907 23.7639H23.1677V23.6479L23.1277 23.7489H23.1037L23.0637 23.6479V23.7629H23.0407V23.6219H23.0747L23.1147 23.7219L23.1557 23.6219H23.1907V23.7629V23.7639ZM3.25572 23.4699V20.5169L4.24072 20.5209C4.47172 20.5169 4.70272 20.5519 4.92272 20.6239C5.10772 20.6869 5.27772 20.7879 5.41972 20.9219C5.55572 21.0519 5.65972 21.2119 5.72572 21.3889C5.86272 21.7819 5.86272 22.2089 5.72572 22.6019C5.66041 22.7785 5.55577 22.9378 5.41972 23.0679C5.27687 23.2009 5.10749 23.3021 4.92272 23.3649C4.70237 23.4386 4.47104 23.4742 4.23872 23.4699H3.25572ZM16.1387 21.3529C16.2874 21.3502 16.435 21.3791 16.5718 21.4377C16.7085 21.4963 16.8312 21.5833 16.9317 21.6929C17.0337 21.8039 17.1137 21.9349 17.1667 22.0769C17.2257 22.2329 17.2557 22.3989 17.2557 22.5659V22.6849H15.2617C15.2687 22.8129 15.3007 22.9369 15.3547 23.0529C15.4022 23.1558 15.4698 23.2481 15.5534 23.3245C15.637 23.4009 15.735 23.4599 15.8417 23.4979C15.9517 23.5379 16.0667 23.5579 16.1837 23.5569C16.3377 23.5599 16.4897 23.5279 16.6307 23.4659C16.7627 23.4039 16.8827 23.3199 16.9867 23.2169L17.1397 23.4189C16.9481 23.6203 16.6947 23.7519 16.4197 23.7929C16.3357 23.8049 16.2497 23.8119 16.1657 23.8119C16.0014 23.8136 15.8383 23.783 15.6857 23.7219C15.5435 23.6645 15.4145 23.5784 15.307 23.469C15.1995 23.3596 15.1156 23.2292 15.0607 23.0859C14.9999 22.927 14.9697 22.7581 14.9717 22.5879C14.9685 22.2608 15.086 21.9439 15.3017 21.6979C15.4123 21.5863 15.5439 21.4977 15.689 21.4373C15.834 21.3769 15.9896 21.3458 16.1467 21.3459L16.1387 21.3529ZM15.8077 21.6699C15.9129 21.6275 16.0253 21.6061 16.1387 21.6069C16.2433 21.6062 16.3469 21.6262 16.4437 21.6656C16.5405 21.7051 16.6285 21.7633 16.7027 21.8369C16.778 21.9123 16.8383 22.0012 16.8807 22.0989C16.9277 22.2059 16.9557 22.3199 16.9637 22.4369H15.2637C15.2758 22.3212 15.3073 22.2083 15.3567 22.1029C15.4453 21.9056 15.607 21.7504 15.8077 21.6699ZM19.0187 21.3529C19.1877 21.3509 19.3547 21.3829 19.5107 21.4479C19.6587 21.5079 19.7907 21.6029 19.8967 21.7229L19.7107 21.9249C19.621 21.8304 19.5127 21.7555 19.3925 21.7051C19.2724 21.6546 19.143 21.6297 19.0127 21.6319C18.8909 21.6307 18.77 21.6544 18.6577 21.7017C18.5454 21.749 18.444 21.8189 18.3597 21.9069C18.2727 21.9933 18.204 22.0964 18.1577 22.2099C18.0648 22.4572 18.0648 22.7297 18.1577 22.9769C18.2252 23.1463 18.342 23.2914 18.4931 23.3934C18.6442 23.4954 18.8224 23.5496 19.0047 23.5489C19.139 23.5502 19.272 23.5226 19.3947 23.4679C19.5117 23.4159 19.6187 23.3429 19.7107 23.2539L19.8907 23.4559C19.7837 23.5759 19.6517 23.6689 19.5047 23.7309C19.3494 23.7952 19.1828 23.8275 19.0147 23.8259C18.8465 23.8279 18.6796 23.7963 18.5237 23.7329C18.3794 23.6743 18.2484 23.5868 18.1389 23.4759C18.0294 23.365 17.9436 23.233 17.8867 23.0879C17.7667 22.7739 17.7667 22.4269 17.8867 22.1129C18.0007 21.8189 18.2307 21.5849 18.5237 21.4659C18.6797 21.3919 18.8497 21.3519 19.0237 21.3459L19.0187 21.3529ZM14.4397 16.4179C14.3371 16.4148 14.2356 16.4395 14.1458 16.4893C14.056 16.5391 13.9814 16.6122 13.9297 16.7009V16.4659H13.5137V18.3999H13.9337V17.3159C13.9337 16.9959 14.0717 16.8179 14.3387 16.8179C14.4287 16.8169 14.5187 16.8329 14.6017 16.8669L14.7317 16.4619C14.6355 16.4274 14.534 16.4094 14.4317 16.4089L14.4397 16.4179ZM8.22672 16.4179C8.50372 16.4079 8.77772 16.4779 9.01672 16.6199L8.82972 16.9599C8.64491 16.8536 8.43592 16.7965 8.22272 16.7939C7.99272 16.7939 7.85472 16.8909 7.85472 17.0199C7.85472 17.1499 8.00072 17.1859 8.18272 17.2099L8.38472 17.2389C8.80472 17.2989 9.06072 17.4489 9.06072 17.8169C9.06072 18.1849 8.73672 18.4479 8.17872 18.4479C7.87982 18.4565 7.58607 18.3689 7.34072 18.1979L7.54372 17.8699C7.72872 18.0069 7.95572 18.0789 8.18672 18.0719C8.47372 18.0719 8.62672 17.9869 8.62672 17.8369C8.62672 17.7279 8.51872 17.6669 8.28772 17.6349L8.08572 17.6069C7.65272 17.5469 7.41772 17.3519 7.41772 17.0369C7.41772 16.6519 7.73772 16.4169 8.22772 16.4169L8.22672 16.4179ZM20.2827 16.4179C20.1801 16.4148 20.0786 16.4395 19.9888 16.4893C19.899 16.5391 19.8244 16.6122 19.7727 16.7009V16.4659H19.3567V18.3999H19.7767V17.3159C19.7767 16.9959 19.9147 16.8179 20.1817 16.8179C20.2717 16.8169 20.3617 16.8329 20.4447 16.8669L20.5747 16.4619C20.4785 16.4274 20.377 16.4095 20.2747 16.4089L20.2827 16.4179ZM15.1557 18.1629C15.0588 18.0678 14.9827 17.9534 14.9324 17.8272C14.8822 17.701 14.8588 17.5657 14.8637 17.4299V17.4219C14.8586 17.286 14.882 17.1504 14.9323 17.024C14.9826 16.8976 15.0588 16.7831 15.156 16.6878C15.2531 16.5925 15.3691 16.5186 15.4965 16.4707C15.6239 16.4229 15.7599 16.4022 15.8957 16.4099C16.1477 16.3979 16.3957 16.4799 16.5907 16.6409L16.3887 16.9809C16.2432 16.87 16.0657 16.809 15.8827 16.8069C15.7246 16.8159 15.576 16.8851 15.4672 17.0002C15.3585 17.1153 15.2979 17.2676 15.2979 17.4259C15.2979 17.5843 15.3585 17.7366 15.4672 17.8517C15.576 17.9668 15.7246 18.036 15.8827 18.0449C16.0657 18.043 16.2432 17.982 16.3887 17.8709L16.5907 18.2109C16.3959 18.3717 16.148 18.4538 15.8957 18.4409C15.7598 18.4487 15.6238 18.428 15.4963 18.3801C15.3689 18.3323 15.2529 18.2583 15.1557 18.1629ZM18.8037 17.4299V16.4629H18.3837V16.6979C18.3122 16.6059 18.2197 16.5322 18.1139 16.4829C18.0082 16.4337 17.8923 16.4104 17.7757 16.4149C17.5076 16.4149 17.2504 16.5215 17.0608 16.7111C16.8712 16.9007 16.7647 17.1578 16.7647 17.4259C16.7647 17.6941 16.8712 17.9512 17.0608 18.1408C17.2504 18.3304 17.5076 18.4369 17.7757 18.4369C17.8921 18.4413 18.0078 18.4179 18.1134 18.3687C18.2189 18.3195 18.3113 18.2459 18.3827 18.1539V18.3889H18.8027V17.4289L18.8037 17.4299ZM17.8437 16.8799C17.767 16.8771 17.6905 16.8893 17.6186 16.916C17.5466 16.9427 17.4806 16.9832 17.4243 17.0354C17.3681 17.0876 17.3226 17.1504 17.2906 17.2201C17.2586 17.2899 17.2406 17.3653 17.2377 17.4419C17.2348 17.5186 17.2471 17.5951 17.2738 17.6671C17.3004 17.7391 17.341 17.8051 17.3932 17.8613C17.4454 17.9176 17.5082 17.9631 17.5779 17.9951C17.6477 18.0271 17.723 18.0451 17.7997 18.0479C17.9546 18.0538 18.1055 17.9978 18.2191 17.8924C18.3328 17.7871 18.3999 17.6408 18.4057 17.4859C18.4116 17.3311 18.3556 17.1802 18.2502 17.0665C18.1448 16.9529 17.9986 16.8858 17.8437 16.8799ZM12.1617 16.4189C12.029 16.4208 11.8979 16.4488 11.7759 16.5013C11.6539 16.5538 11.5435 16.6298 11.4509 16.725C11.3584 16.8201 11.2854 16.9326 11.2363 17.056C11.1872 17.1793 11.1629 17.3112 11.1647 17.4439C11.1666 17.5767 11.1945 17.7078 11.247 17.8298C11.2995 17.9517 11.3756 18.0621 11.4707 18.1547C11.5659 18.2473 11.6784 18.3202 11.8018 18.3693C11.9251 18.4185 12.057 18.4428 12.1897 18.4409C12.4787 18.4509 12.7607 18.3549 12.9827 18.1709L12.7807 17.8589C12.6211 17.9869 12.4233 18.058 12.2187 18.0609C12.0796 18.0731 11.9413 18.0304 11.8331 17.9421C11.725 17.8537 11.6556 17.7267 11.6397 17.5879H13.0777V17.4259C13.0777 16.8189 12.7017 16.4149 12.1597 16.4149L12.1617 16.4189ZM12.5037 16.9279C12.4118 16.8401 12.2888 16.7922 12.1617 16.7949H12.1537C12.0238 16.7905 11.8973 16.8371 11.8012 16.9248C11.7052 17.0124 11.6472 17.1341 11.6397 17.2639H12.6507C12.6481 17.1369 12.5953 17.0161 12.5037 16.9279ZM21.7537 16.8839C21.675 16.8774 21.5957 16.887 21.5207 16.9119C21.4457 16.9369 21.3766 16.9768 21.3175 17.0292C21.2583 17.0817 21.2104 17.1455 21.1767 17.217C21.1429 17.2884 21.124 17.366 21.121 17.4449C21.118 17.5239 21.1311 17.6027 21.1594 17.6764C21.1877 17.7502 21.2306 17.8175 21.2856 17.8742C21.3407 17.931 21.4066 17.976 21.4795 18.0065C21.5524 18.037 21.6307 18.0525 21.7097 18.0519C21.8603 18.0506 22.0045 17.9913 22.1125 17.8864C22.2204 17.7815 22.2837 17.6389 22.2893 17.4885C22.2948 17.338 22.2421 17.1912 22.1422 17.0786C22.0423 16.9661 21.9028 16.8963 21.7527 16.8839H21.7537ZM6.94372 17.4339V16.4669H6.52372V16.7019C6.45225 16.61 6.35993 16.5364 6.25438 16.4872C6.14883 16.438 6.03309 16.4146 5.91672 16.4189C5.64859 16.4189 5.39144 16.5255 5.20184 16.7151C5.01224 16.9047 4.90572 17.1618 4.90572 17.4299C4.90572 17.6981 5.01224 17.9552 5.20184 18.1448C5.39144 18.3344 5.64859 18.4409 5.91672 18.4409C6.03293 18.4451 6.14847 18.4217 6.25383 18.3725C6.35919 18.3233 6.45135 18.2497 6.52272 18.1579V18.3929H6.94372V17.4329V17.4339ZM5.98372 16.8839C5.90496 16.8774 5.8257 16.887 5.75072 16.9119C5.67575 16.9369 5.6066 16.9768 5.54747 17.0292C5.48834 17.0817 5.44044 17.1455 5.40667 17.217C5.3729 17.2884 5.35396 17.366 5.35098 17.4449C5.34801 17.5239 5.36106 17.6027 5.38936 17.6764C5.41766 17.7502 5.46062 17.8175 5.51564 17.8742C5.57066 17.931 5.6366 17.976 5.70949 18.0065C5.78238 18.037 5.8607 18.0525 5.93972 18.0519C6.09034 18.0509 6.23474 17.9918 6.34286 17.8869C6.45098 17.782 6.51448 17.6395 6.52015 17.489C6.52582 17.3385 6.47322 17.1916 6.3733 17.0789C6.27337 16.9662 6.13383 16.8963 5.98372 16.8839ZM23.4137 18.1189C23.4654 18.1188 23.5151 18.1385 23.5527 18.1739C23.5755 18.1959 23.5924 18.2232 23.6018 18.2534C23.6113 18.2836 23.6129 18.3157 23.6066 18.3467C23.6004 18.3778 23.5863 18.4067 23.5659 18.4308C23.5455 18.455 23.5193 18.4736 23.4897 18.4849C23.4655 18.4959 23.4393 18.5017 23.4127 18.5019C23.3744 18.5017 23.337 18.4906 23.3047 18.4699C23.2725 18.4491 23.2468 18.4197 23.2307 18.3849C23.218 18.3555 23.213 18.3232 23.2161 18.2913C23.2193 18.2593 23.2304 18.2287 23.2486 18.2022C23.2668 18.1758 23.2914 18.1543 23.3201 18.1399C23.3488 18.1256 23.3806 18.1187 23.4127 18.1199L23.4137 18.1189ZM23.4717 18.4489C23.4531 18.4571 23.433 18.4611 23.4127 18.4609V18.4629C23.3923 18.4623 23.3722 18.4576 23.3537 18.4489C23.3358 18.4415 23.3195 18.4306 23.3057 18.4169C23.2806 18.3893 23.2666 18.3533 23.2666 18.3159C23.2666 18.2786 23.2806 18.2426 23.3057 18.2149C23.3197 18.2007 23.3363 18.1894 23.3547 18.1817C23.3731 18.1739 23.3928 18.17 23.4127 18.1699C23.4324 18.17 23.4518 18.174 23.4698 18.1817C23.4878 18.1895 23.5041 18.2008 23.5177 18.2149C23.5429 18.2426 23.5568 18.2786 23.5568 18.3159C23.5568 18.3533 23.5429 18.3893 23.5177 18.4169C23.5045 18.4303 23.4889 18.4412 23.4717 18.4489ZM23.4247 18.2209C23.4447 18.2199 23.4627 18.2259 23.4777 18.2369C23.4838 18.242 23.4887 18.2485 23.4918 18.2558C23.4949 18.2631 23.4963 18.271 23.4957 18.2789C23.4962 18.2858 23.4951 18.2926 23.4927 18.299C23.4903 18.3053 23.4866 18.3111 23.4817 18.3159C23.4699 18.3267 23.4547 18.333 23.4387 18.3339L23.4977 18.4009H23.4507L23.3967 18.3339H23.3787V18.4009H23.3397V18.2229L23.4247 18.2209ZM23.3807 18.3039V18.2549L23.4247 18.2669C23.4329 18.2644 23.4416 18.2644 23.4497 18.2669C23.4511 18.2697 23.4519 18.2728 23.4519 18.2759C23.4519 18.2791 23.4511 18.2822 23.4497 18.2849C23.4513 18.2879 23.4521 18.2911 23.4521 18.2944C23.4521 18.2978 23.4513 18.301 23.4497 18.3039C23.4416 18.3064 23.4329 18.3064 23.4247 18.3039H23.3807Z" fill="#B2B2B2"/>
<path id="Vector_2" d="M8.8817 1.73389H15.2527V13.1829H8.8817V1.73389Z" fill="#D6D6D6"/>
<path id="Vector_3" d="M9.28553 7.45873C9.28448 6.35603 9.53432 5.26754 10.0161 4.27567C10.4979 3.2838 11.1991 2.41455 12.0665 1.73373C10.9925 0.889889 9.70276 0.36522 8.34467 0.219675C6.98658 0.0741313 5.61493 0.313584 4.38649 0.91067C3.15804 1.50776 2.12235 2.43839 1.39776 3.59622C0.673173 4.75404 0.288925 6.09236 0.288925 7.45823C0.288925 8.82409 0.673173 10.1624 1.39776 11.3202C2.12235 12.4781 3.15804 13.4087 4.38649 14.0058C5.61493 14.6029 6.98658 14.8423 8.34467 14.6968C9.70276 14.5512 10.9925 14.0266 12.0665 13.1827C11.1994 12.5019 10.4985 11.6328 10.0169 10.6411C9.53527 9.64941 9.28552 8.56118 9.28654 7.45873H9.28553Z" fill="#B2B2B2"/>
<path id="Vector_4" d="M23.8475 7.45868C23.8476 8.82493 23.4632 10.1636 22.7383 11.3217C22.0134 12.4798 20.9773 13.4106 19.7484 14.0077C18.5196 14.6048 17.1475 14.844 15.789 14.6981C14.4306 14.5523 13.1406 14.0271 12.0665 13.1827C12.9337 12.5015 13.6348 11.6322 14.1169 10.6405C14.599 9.64872 14.8496 8.5604 14.8496 7.45767C14.8496 6.35495 14.599 5.26663 14.1169 4.27488C13.6348 3.28312 12.9337 2.41385 12.0665 1.73267C13.1405 0.888157 14.4304 0.362897 15.7889 0.216952C17.1473 0.071007 18.5194 0.310267 19.7482 0.907377C20.9771 1.50449 22.0131 2.43534 22.7378 3.59352C23.4626 4.75169 23.8468 6.09043 23.8465 7.45668V7.45868H23.8475Z" fill="#E2E2E2"/>
</g>
</svg>

<svg width="24" height="24" fill="none" xmlns="http://www.w3.org/2000/svg"><path fill-rule="evenodd" clip-rule="evenodd" d="M22.713 17.434V15.69h-.42v1.012a.734.734 0 0 0-.607-.283 1.011 1.011 0 0 0 0 2.022.734.734 0 0 0 .607-.283v.235h.42v-.96Zm-12.547-.968h.688v.378h-.684v.89c0 .194.077.324.279.324a.775.775 0 0 0 .368-.126l.12.36a.986.986 0 0 1-.524.15c-.498 0-.672-.267-.672-.716v-.88h-.392v-.378h.392v-.586h.425v.586-.002Zm-5.594 1.94v-1.214a.72.72 0 0 0-.76-.768.749.749 0 0 0-.68.343.71.71 0 0 0-.64-.343.64.64 0 0 0-.566.287v-.24h-.42v1.935h.424v-1.072a.453.453 0 0 1 .474-.514c.279 0 .42.182.42.51v1.076h.425v-1.072a.455.455 0 0 1 .473-.514c.288 0 .425.182.425.51v1.076h.425Zm16.68 3.988h-.385l.002-2.273h-.287v3.64h.303v-1.114h.386l1.01 1.114h.368l-1.153-1.255 1.132-1.122h-.364l-1.01 1.01h-.001Zm-8.675-.795a.918.918 0 0 0-.166.202l-.01-1.668h-.288v3.64h.288v-1.355a.762.762 0 0 1 .485-.732.849.849 0 0 1 .312-.056c.11-.003.22.015.323.052a.644.644 0 0 1 .39.398.975.975 0 0 1 .05.324v1.37h.29v-1.458a1.053 1.053 0 0 0-.072-.404.835.835 0 0 0-.52-.492 1.182 1.182 0 0 0-.88.04.894.894 0 0 0-.202.14v-.001Zm-2.638-1.415c.29 0 .577.067.838.196.12.06.234.138.335.228.1.089.186.19.257.304l-.257.17a1.34 1.34 0 0 0-.815-.56 1.57 1.57 0 0 0-.947.068 1.4 1.4 0 0 0-.788.785 1.71 1.71 0 0 0 0 1.233 1.396 1.396 0 0 0 .789.785 1.578 1.578 0 0 0 .944.069 1.37 1.37 0 0 0 .607-.308c.084-.074.156-.16.216-.252l.253.184c-.073.11-.161.21-.26.297-.21.179-.458.305-.726.368a1.975 1.975 0 0 1-1.155-.085 1.736 1.736 0 0 1-.575-.372 1.71 1.71 0 0 1-.38-.572 2.01 2.01 0 0 1 0-1.463 1.72 1.72 0 0 1 .38-.572c.165-.16.36-.287.575-.372.225-.09.466-.133.709-.131Zm0 0H9.93h.008Zm-5.7.04c.27-.004.54.038.798.123.225.075.43.195.607.354.167.156.297.347.382.558.178.474.178.996 0 1.469a1.547 1.547 0 0 1-.382.558c-.176.159-.382.28-.607.354a2.4 2.4 0 0 1-.797.123H2.948v-3.54H4.24Zm-2.661 3.54h.31v-3.54h-.31v3.54Zm21.439-.12h-.045v.12h-.022v-.12h-.045v-.022h.114l-.002.022Zm.174.12h-.023v-.116l-.04.1h-.024l-.04-.1v.115h-.023v-.141h.034l.04.1.04-.1h.036v.142ZM3.256 23.47v-2.953l.985.004a2.08 2.08 0 0 1 .682.103c.185.063.355.164.497.298.136.13.24.29.306.467.137.393.137.82 0 1.213a1.24 1.24 0 0 1-.306.466 1.382 1.382 0 0 1-.497.297c-.22.074-.452.11-.684.105h-.983Zm12.883-2.117a1.051 1.051 0 0 1 .793.34c.102.11.182.242.235.384.059.156.089.322.089.489v.119h-1.994a1 1 0 0 0 .093.368.851.851 0 0 0 .487.445 1.074 1.074 0 0 0 .789-.032 1.26 1.26 0 0 0 .356-.25l.153.203a1.248 1.248 0 0 1-.72.374 1.81 1.81 0 0 1-.254.019 1.256 1.256 0 0 1-.48-.09 1.117 1.117 0 0 1-.625-.636 1.349 1.349 0 0 1-.09-.498 1.33 1.33 0 0 1 .33-.89 1.188 1.188 0 0 1 .846-.352l-.008.007Zm-.331.317a.869.869 0 0 1 .636-.004c.097.04.184.097.259.17a.849.849 0 0 1 .178.263c.047.107.075.22.083.338h-1.7a1.02 1.02 0 0 1 .093-.334.835.835 0 0 1 .45-.433Zm3.21-.317c.17-.002.337.03.493.095.148.06.28.155.386.275l-.186.202a.94.94 0 0 0-.698-.293.892.892 0 0 0-.653.275.913.913 0 0 0-.202.303 1.09 1.09 0 0 0 0 .767.908.908 0 0 0 .847.572.936.936 0 0 0 .39-.081c.117-.052.224-.125.316-.214l.18.202c-.107.12-.24.213-.386.275a1.25 1.25 0 0 1-.49.095 1.263 1.263 0 0 1-.491-.093 1.148 1.148 0 0 1-.637-.645 1.365 1.365 0 0 1 0-.975c.114-.294.344-.528.637-.647.156-.074.326-.114.5-.12l-.005.007Zm-4.578-4.935a.57.57 0 0 0-.51.283v-.235h-.416V18.4h.42v-1.084c0-.32.138-.498.405-.498.09-.001.18.015.263.049l.13-.405a.902.902 0 0 0-.3-.053l.008.009Zm-6.213 0c.277-.01.55.06.79.202l-.187.34a1.248 1.248 0 0 0-.607-.166c-.23 0-.368.097-.368.226 0 .13.146.166.328.19l.202.029c.42.06.676.21.676.578s-.324.63-.882.63a1.395 1.395 0 0 1-.838-.25l.203-.327c.185.137.412.209.643.202.287 0 .44-.085.44-.235 0-.11-.108-.17-.34-.202l-.201-.028c-.433-.06-.668-.255-.668-.57 0-.385.32-.62.81-.62h-.001Zm12.056 0a.57.57 0 0 0-.51.283v-.235h-.416V18.4h.42v-1.084c0-.32.138-.498.405-.498.09-.001.18.015.263.049l.13-.405a.905.905 0 0 0-.3-.053l.008.009Zm-5.127 1.745a.978.978 0 0 1-.292-.733v-.008a.977.977 0 0 1 1.032-1.012c.252-.012.5.07.695.23l-.202.34a.85.85 0 0 0-.506-.173.62.62 0 0 0 0 1.238.848.848 0 0 0 .506-.174l.202.34a1.01 1.01 0 0 1-.695.23.976.976 0 0 1-.74-.278Zm3.648-.733v-.967h-.42v.235a.735.735 0 0 0-.608-.283 1.011 1.011 0 0 0 0 2.022.734.734 0 0 0 .607-.283v.235h.42v-.96Zm-.96-.55a.585.585 0 1 0-.044 1.17.585.585 0 0 0 .044-1.17Zm-5.682-.461a1.013 1.013 0 0 0-.691 1.736 1.01 1.01 0 0 0 .719.286c.289.01.57-.086.793-.27l-.202-.312a.92.92 0 0 1-.562.202.536.536 0 0 1-.58-.473h1.439v-.162c0-.607-.376-1.011-.918-1.011l.002.004Zm.342.509a.48.48 0 0 0-.342-.133h-.008a.498.498 0 0 0-.514.469h1.01a.48.48 0 0 0-.146-.336Zm9.25-.044a.587.587 0 0 0-.468.99.584.584 0 1 0 .467-.99Zm-14.81.55v-.967h-.42v.235a.734.734 0 0 0-.607-.283 1.011 1.011 0 0 0 0 2.022.734.734 0 0 0 .606-.283v.235h.42v-.96Zm-.96-.55a.586.586 0 0 0-.468.99.583.583 0 0 0 1.004-.385.585.585 0 0 0-.536-.605Zm17.43 1.235c.051 0 .101.02.139.055a.188.188 0 0 1-.063.31.19.19 0 0 1-.185-.014.202.202 0 0 1-.074-.085.19.19 0 0 1 .182-.265v-.001Zm.058.33a.143.143 0 0 1-.06.012v.002a.149.149 0 0 1-.058-.014.149.149 0 0 1-.048-.032.15.15 0 0 1 0-.202.15.15 0 0 1 .164-.033.158.158 0 0 1 .048.033.15.15 0 0 1 0 .202.152.152 0 0 1-.046.032Zm-.047-.228a.081.081 0 0 1 .053.016.05.05 0 0 1 .018.042.047.047 0 0 1-.014.037.07.07 0 0 1-.043.018l.059.067h-.047l-.054-.067h-.018v.067h-.04v-.178l.086-.002Zm-.044.083v-.05l.044.013a.043.043 0 0 1 .025 0 .02.02 0 0 1 0 .018.02.02 0 0 1 0 .019.043.043 0 0 1-.025 0h-.044Z" fill="#B2B2B2"/><path d="M8.882 1.734h6.37v11.449h-6.37V1.733Z" fill="#D6D6D6"/><path d="M9.286 7.459a7.27 7.27 0 0 1 2.78-5.725 7.28 7.28 0 1 0 0 11.449 7.268 7.268 0 0 1-2.78-5.724Z" fill="#B2B2B2"/><path d="M23.848 7.459a7.28 7.28 0 0 1-11.781 5.724 7.28 7.28 0 0 0 0-11.45 7.28 7.28 0 0 1 11.78 5.724v.002Z" fill="#E2E2E2"/></svg>
